wp-content/themes/kupodigitalb3d/assets/image/centauro.svg

<svg version="1.1" viewBox="0 0 178 26" fill="none" role="img" aria-label="logo da centauro"
  sodipodi:docname="centauro.svg" inkscape:version="1.3.2 (091e20ef0f, 2023-11-25)"
  xmlns:inkscape="http://www.inkscape.org/namespaces/inkscape"
  xmlns:sodipodi="http://sodipodi.sourceforge.net/DTD/sodipodi-0.dtd" xmlns="http://www.w3.org/2000/svg"
  xmlns:svg="http://www.w3.org/2000/svg">
  <defs />
  <sodipodi:namedview pagecolor="#ffffff" bordercolor="#111111" borderopacity="1" inkscape:showpageshadow="0"
    inkscape:pageopacity="0" inkscape:pagecheckerboard="1" inkscape:deskcolor="#d1d1d1" inkscape:zoom="5.6966292"
    inkscape:cx="89" inkscape:cy="13.077909" inkscape:window-width="1600" inkscape:window-height="831"
    inkscape:window-x="0" inkscape:window-y="0" inkscape:window-maximized="1" inkscape:current-layer="svg14" />
  <g transform="matrix(0.8936578,0,0,0.8936578,8.3759439,1.4015964)" class="fill-black">
    <path fill="#ffffff"
      d="m 15.816406,10.683594 c -4.253906,4.425781 -0.914062,8.046875 7.453125,8.175781 l -0.796875,1.441406 C 11.789062,20.183594 7.273438,16.046875 12.375,10.996094 16.101562,7.300781 24.65625,3.429688 32.261719,2.34375 l -0.664063,1.222656 c -6.257812,1.183594 -12.65625,3.875 -15.78125,7.117188 z m 0,0"
      class="fill-black" />
    <path fill="#ffffff"
      d="m 11.296875,10.960938 c -5.484375,5.425781 -0.6875,9.898437 10.785156,10.027343 l -1.128906,2.027344 c -0.414063,0 -0.816406,0 -1.226563,0 C 6.644531,23.023438 1.648438,17.203125 7.742188,10.878906 12.613281,5.804688 23.644531,1.574219 32.96875,1.046875 L 32.445312,2.011719 C 24.050781,3.046875 15.300781,6.992188 11.296875,10.960938 Z m 0,0"
      class="fill-black" />
    <path fill="#ffffff"
      d="M 3.066406,10.9375 C 8.886719,4.992188 21.9375,0.4375 33.554688,0 L 33.140625,0.699219 C 23.101562,1.207031 11.90625,5.472656 6.78125,10.800781 0.378906,17.445312 5.558594,23.699219 19.316406,23.699219 c 0.433594,0 0.835938,0 1.261719,-0.02344 L 19.375,25.816406 C 17.820312,25.921875 12.652344,26.210938 7.722656,24.675781 -0.417969,22.140625 -2.375,16.46875 3.058594,10.9375"
      class="fill-black" />
    <path fill="#ffffff"
      d="m 25.457031,20.238281 c -0.757812,0.03516 -1.578125,0.05859 -2.140625,0.07031 l 0.757813,-1.4375 c 0.546875,0 1.324219,-0.02344 1.921875,-0.04687 z m 0,0"
      class="fill-black" />
    <path fill="#ffffff"
      d="m 23.523438,25.472656 c -0.960938,0.09375 -2.152344,0.195313 -2.960938,0.265625 l 1.054688,-2.085937 c 0.703124,-0.03125 1.765624,-0.08984 2.625,-0.148438 z m 0,0"
      class="fill-black" />
    <path fill="#ffffff"
      d="m 24.492188,22.886719 c -0.683594,0.04297 -1.542969,0.08984 -2.523438,0.125 l 1.011719,-2 c 0.832031,0 1.609375,-0.04687 2.238281,-0.08203 z m 0,0"
      class="fill-black" />
    <path fill="#ffffff"
      d="m 69.488281,25.226562 h -5.640625 c -2.105468,0 -3.535156,-0.539062 -4.375,-1.582031 -0.839844,-1.042969 -1.039062,-2.617187 -0.601562,-4.734375 L 61.410156,6.886719 c 0.53125,-2.515625 1.367188,-4.195313 2.4375,-5.074219 1.070313,-0.878906 2.90625,-1.269531 5.375,-1.269531 h 4.875 L 73.5,3.335938 h -3.535156 c -1.105469,0 -1.871094,0.234374 -2.40625,0.703124 -0.535156,0.46875 -0.867188,1.308594 -1.101563,2.488282 l -0.46875,2.148437 h 5.875 l -0.699219,3.296875 h -5.878906 l -1.339844,6.382813 c -0.300781,1.476562 -0.300781,2.519531 0.07031,3.15625 0.367187,0.640625 1.167969,0.941406 2.367187,0.941406 h 3.710938 z m 0,0"
      class="fill-black" />
    <path fill="#ffffff"
      d="M 86.355469,25.226562 H 81.410156 L 85.554688,5.6875 C 85.6875,4.945312 85.621094,4.417969 85.320312,4.039062 85.019531,3.660156 84.417969,3.46875 83.582031,3.46875 h -0.867187 l -4.609375,21.757812 h -4.941407 l 5.207032,-24.6875 h 8.222656 c 1.566406,0 2.703125,0.4375 3.371094,1.3125 0.667968,0.871094 0.902344,2.082032 0.566406,3.660157 z m 0,0"
      class="fill-black" />
    <path fill="#ffffff"
      d="m 107.82813,3.328125 h -4.67579 L 98.542969,25.226562 H 93.601562 L 98.210938,3.328125 h -4.578126 l 0.570313,-2.789063 h 14.195315 z m 0,0"
      class="fill-black" />
    <path fill="#ffffff"
      d="m 119.15625,25.226562 h -4.98437 l 2.80859,-13.269531 h -3.90625 l -2.80469,13.269531 h -4.94531 l 3.83984,-18.207031 c 0.46875,-2.179687 1.41016,-3.859375 2.80469,-4.988281 1.39453,-1.128906 3.28125,-1.746094 5.55469,-1.746094 2.40234,0 4.03906,0.535156 4.91015,1.609375 0.86719,1.109375 1.03516,2.792969 0.56641,5.140625 z m -1.46875,-16.5625 0.56641,-2.683593 c 0.23437,-1.015625 0.23437,-1.746094 0,-2.183594 -0.23047,-0.433594 -0.63672,-0.636719 -1.33594,-0.636719 -0.76953,0 -1.33594,0.234375 -1.70313,0.636719 -0.36718,0.40625 -0.66796,1.140625 -0.86718,2.183594 l -0.57032,2.683593 z m 0,0"
      class="fill-black" />
    <path fill="#ffffff"
      d="m 138.98828,18.40625 c -0.50781,2.453125 -1.46875,4.265625 -2.80469,5.441406 -1.33593,1.175782 -3.20703,1.777344 -5.48047,1.777344 -2.20312,0 -3.73828,-0.605469 -4.67187,-1.847656 -0.9375,-1.238282 -1.10547,-2.992188 -0.60156,-5.375 l 3.77343,-17.863282 h 4.94141 l -3.73828,17.761719 c -0.30078,1.347657 -0.36719,2.285157 -0.23438,2.855469 0.13282,0.570312 0.56641,0.839844 1.30079,0.839844 0.30859,0.01172 0.61328,-0.05469 0.88671,-0.195313 0.27344,-0.140625 0.50782,-0.351562 0.67969,-0.609375 0.40235,-0.507812 0.73438,-1.476562 1.03516,-2.886718 l 3.74219,-17.761719 h 4.9414 z m 0,0"
      class="fill-black" />
    <path fill="#ffffff"
      d="m 177.02734,12.941406 c -1.07031,5.003906 -2.375,8.375 -3.9414,10.105469 -0.75391,0.832031 -1.67578,1.496094 -2.70703,1.941406 -1.02735,0.445313 -2.14063,0.664063 -3.26172,0.640625 -2.40625,0 -4.03907,-0.875 -4.91016,-2.589844 -0.87109,-1.710937 -0.75391,-5.101562 0.30078,-10.105468 1.07031,-5.074219 2.40625,-8.433594 3.94141,-10.148438 0.76953,-0.824218 1.70312,-1.472656 2.73828,-1.90625 1.03516,-0.433594 2.15234,-0.644531 3.27344,-0.613281 2.4375,0 4.10547,0.757813 4.97265,2.28125 0.8711,1.523437 0.73828,5.003906 -0.39843,10.378906 z m -5.11328,0 c 0.51172,-2.257812 0.89063,-4.546875 1.13672,-6.851562 0.16797,-1.582032 -0.30078,-2.386719 -1.33594,-2.386719 -1.03515,0 -1.80078,0.804687 -2.37109,2.417969 -0.71094,2.238281 -1.28906,4.515625 -1.73438,6.820312 -0.70312,3.296875 -1.10546,5.675782 -1.16796,7.117188 -0.0664,1.441406 0.39843,2.117187 1.39843,2.117187 1,0 1.80469,-0.761719 2.33985,-2.386719 0.53515,-1.574218 1.10156,-3.863281 1.73437,-6.851562"
      class="fill-black" />
    <path fill="#ffffff"
      d="M 54.929688,25.226562 H 49.25 c -2.066406,0 -3.53125,-0.539062 -4.371094,-1.582031 -0.84375,-1.042969 -1.035156,-2.617187 -0.570312,-4.734375 L 46.847656,6.886719 c 0.535156,-2.515625 1.335938,-4.195313 2.4375,-5.074219 1.101563,-0.878906 2.871094,-1.269531 5.375,-1.269531 h 4.84375 l -0.601562,2.792969 h -3.535156 c -1.066407,0 -1.871094,0.234374 -2.367188,0.703124 -0.503906,0.46875 -0.902344,1.308594 -1.136719,2.488282 l -0.46875,2.148437 -0.667969,3.296875 -1.367187,6.382813 c -0.300781,1.476562 -0.269531,2.519531 0.0625,3.15625 0.335937,0.640625 1.171875,0.941406 2.40625,0.941406 h 3.675781 z m 0,0"
      class="fill-black" />
    <path fill="#ffffff"
      d="m 154.98437,7.15625 c 0.33204,-1.523438 0.36719,-2.554688 0.16797,-3.089844 -0.20312,-0.535156 -0.73828,-0.804687 -1.60547,-0.804687 h -1.30078 l -1.60547,7.609375 h 1.4375 c 0.34375,0.01172 0.6875,-0.05859 1,-0.203125 0.31641,-0.144531 0.58985,-0.363281 0.80469,-0.636719 0.4336,-0.535156 0.80078,-1.507812 1.10156,-2.886719 z m -1.36718,8.574219 C 153.75,15.09375 153.64844,14.625 153.38281,14.320312 153.11328,14.019531 152.67969,13.8125 152.07812,13.8125 h -2.07031 l -2.40625,11.417969 h -4.9414 l 5.21093,-24.691407 h 7.54688 c 2.07031,0 3.47265,0.472657 4.20703,1.445313 0.73437,0.972656 0.93359,2.386719 0.50781,4.332031 -0.30078,1.480469 -0.83594,2.6875 -1.63672,3.59375 -0.79297,0.921875 -1.83593,1.589844 -3.0039,1.914063 1.13281,0.132812 1.96875,0.570312 2.46875,1.308593 0.5,0.738282 0.60156,1.648438 0.36718,2.722657 l -2.0039,9.371093 h -4.71094 z m 0,0"
      class="fill-black" />
  </g>
</svg>

<svg xmlns="http://www.w3.org/2000/svg" version="1.1" viewBox="0 0 178 26" fill="none" role="img" aria-label="logo da centauro"><g id="surface1"><path fill="white" d="M 15.816406 10.683594 C 11.5625 15.109375 14.902344 18.730469 23.269531 18.859375 L 22.472656 20.300781 C 11.789062 20.183594 7.273438 16.046875 12.375 10.996094 C 16.101562 7.300781 24.65625 3.429688 32.261719 2.34375 L 31.597656 3.566406 C 25.339844 4.75 18.941406 7.441406 15.816406 10.683594 Z M 15.816406 10.683594 "></path><path fill="white" d="M 11.296875 10.960938 C 5.8125 16.386719 10.609375 20.859375 22.082031 20.988281 L 20.953125 23.015625 C 20.539062 23.015625 20.136719 23.015625 19.726562 23.015625 C 6.644531 23.023438 1.648438 17.203125 7.742188 10.878906 C 12.613281 5.804688 23.644531 1.574219 32.96875 1.046875 L 32.445312 2.011719 C 24.050781 3.046875 15.300781 6.992188 11.296875 10.960938 Z M 11.296875 10.960938 "></path><path fill="white" d="M 3.066406 10.9375 C 8.886719 4.992188 21.9375 0.4375 33.554688 0 L 33.140625 0.699219 C 23.101562 1.207031 11.90625 5.472656 6.78125 10.800781 C 0.378906 17.445312 5.558594 23.699219 19.316406 23.699219 C 19.75 23.699219 20.152344 23.699219 20.578125 23.675781 L 19.375 25.816406 C 17.820312 25.921875 12.652344 26.210938 7.722656 24.675781 C -0.417969 22.140625 -2.375 16.46875 3.058594 10.9375 "></path><path fill="white" d="M 25.457031 20.238281 C 24.699219 20.273438 23.878906 20.296875 23.316406 20.308594 L 24.074219 18.871094 C 24.621094 18.871094 25.398438 18.847656 25.996094 18.824219 Z M 25.457031 20.238281 "></path><path fill="white" d="M 23.523438 25.472656 C 22.5625 25.566406 21.371094 25.667969 20.5625 25.738281 L 21.617188 23.652344 C 22.320312 23.621094 23.382812 23.5625 24.242188 23.503906 Z M 23.523438 25.472656 "></path><path fill="white" d="M 24.492188 22.886719 C 23.808594 22.929688 22.949219 22.976562 21.96875 23.011719 L 22.980469 21.011719 C 23.8125 21.011719 24.589844 20.964844 25.21875 20.929688 Z M 24.492188 22.886719 "></path><path fill="white" d="M 69.488281 25.226562 L 63.847656 25.226562 C 61.742188 25.226562 60.3125 24.6875 59.472656 23.644531 C 58.632812 22.601562 58.433594 21.027344 58.871094 18.910156 L 61.410156 6.886719 C 61.941406 4.371094 62.777344 2.691406 63.847656 1.8125 C 64.917969 0.933594 66.753906 0.542969 69.222656 0.542969 L 74.097656 0.542969 L 73.5 3.335938 L 69.964844 3.335938 C 68.859375 3.335938 68.09375 3.570312 67.558594 4.039062 C 67.023438 4.507812 66.691406 5.347656 66.457031 6.527344 L 65.988281 8.675781 L 71.863281 8.675781 L 71.164062 11.972656 L 65.285156 11.972656 L 63.945312 18.355469 C 63.644531 19.832031 63.644531 20.875 64.015625 21.511719 C 64.382812 22.152344 65.183594 22.453125 66.382812 22.453125 L 70.09375 22.453125 Z M 69.488281 25.226562 "></path><path fill="white" d="M 86.355469 25.226562 L 81.410156 25.226562 L 85.554688 5.6875 C 85.6875 4.945312 85.621094 4.417969 85.320312 4.039062 C 85.019531 3.660156 84.417969 3.46875 83.582031 3.46875 L 82.714844 3.46875 L 78.105469 25.226562 L 73.164062 25.226562 L 78.371094 0.539062 L 86.59375 0.539062 C 88.160156 0.539062 89.296875 0.976562 89.964844 1.851562 C 90.632812 2.722656 90.867188 3.933594 90.53125 5.511719 Z M 86.355469 25.226562 "></path><path fill="white" d="M 107.828125 3.328125 L 103.152344 3.328125 L 98.542969 25.226562 L 93.601562 25.226562 L 98.210938 3.328125 L 93.632812 3.328125 L 94.203125 0.539062 L 108.398438 0.539062 Z M 107.828125 3.328125 "></path><path fill="white" d="M 119.15625 25.226562 L 114.171875 25.226562 L 116.980469 11.957031 L 113.074219 11.957031 L 110.269531 25.226562 L 105.324219 25.226562 L 109.164062 7.019531 C 109.632812 4.839844 110.574219 3.160156 111.96875 2.03125 C 113.363281 0.902344 115.25 0.285156 117.523438 0.285156 C 119.925781 0.285156 121.5625 0.820312 122.433594 1.894531 C 123.300781 3.003906 123.46875 4.6875 123 7.035156 Z M 117.6875 8.664062 L 118.253906 5.980469 C 118.488281 4.964844 118.488281 4.234375 118.253906 3.796875 C 118.023438 3.363281 117.617188 3.160156 116.917969 3.160156 C 116.148438 3.160156 115.582031 3.394531 115.214844 3.796875 C 114.847656 4.203125 114.546875 4.9375 114.347656 5.980469 L 113.777344 8.664062 Z M 117.6875 8.664062 "></path><path fill="white" d="M 138.988281 18.40625 C 138.480469 20.859375 137.519531 22.671875 136.183594 23.847656 C 134.847656 25.023438 132.976562 25.625 130.703125 25.625 C 128.5 25.625 126.964844 25.019531 126.03125 23.777344 C 125.09375 22.539062 124.925781 20.785156 125.429688 18.402344 L 129.203125 0.539062 L 134.144531 0.539062 L 130.40625 18.300781 C 130.105469 19.648438 130.039062 20.585938 130.171875 21.15625 C 130.304688 21.726562 130.738281 21.996094 131.472656 21.996094 C 131.78125 22.007812 132.085938 21.941406 132.359375 21.800781 C 132.632812 21.660156 132.867188 21.449219 133.039062 21.191406 C 133.441406 20.683594 133.773438 19.714844 134.074219 18.304688 L 137.816406 0.542969 L 142.757812 0.542969 Z M 138.988281 18.40625 "></path><path fill="white" d="M 177.027344 12.941406 C 175.957031 17.945312 174.652344 21.316406 173.085938 23.046875 C 172.332031 23.878906 171.410156 24.542969 170.378906 24.988281 C 169.351562 25.433594 168.238281 25.652344 167.117188 25.628906 C 164.710938 25.628906 163.078125 24.753906 162.207031 23.039062 C 161.335938 21.328125 161.453125 17.9375 162.507812 12.933594 C 163.578125 7.859375 164.914062 4.5 166.449219 2.785156 C 167.21875 1.960938 168.152344 1.3125 169.1875 0.878906 C 170.222656 0.445312 171.339844 0.234375 172.460938 0.265625 C 174.898438 0.265625 176.566406 1.023438 177.433594 2.546875 C 178.304688 4.070312 178.171875 7.550781 177.035156 12.925781 Z M 171.914062 12.941406 C 172.425781 10.683594 172.804688 8.394531 173.050781 6.089844 C 173.21875 4.507812 172.75 3.703125 171.714844 3.703125 C 170.679688 3.703125 169.914062 4.507812 169.34375 6.121094 C 168.632812 8.359375 168.054688 10.636719 167.609375 12.941406 C 166.90625 16.238281 166.503906 18.617188 166.441406 20.058594 C 166.375 21.5 166.839844 22.175781 167.839844 22.175781 C 168.839844 22.175781 169.644531 21.414062 170.179688 19.789062 C 170.714844 18.214844 171.28125 15.925781 171.914062 12.9375 "></path><path fill="white" d="M 54.929688 25.226562 L 49.25 25.226562 C 47.183594 25.226562 45.71875 24.6875 44.878906 23.644531 C 44.035156 22.601562 43.84375 21.027344 44.308594 18.910156 L 46.847656 6.886719 C 47.382812 4.371094 48.183594 2.691406 49.285156 1.8125 C 50.386719 0.933594 52.15625 0.542969 54.660156 0.542969 L 59.503906 0.542969 L 58.902344 3.335938 L 55.367188 3.335938 C 54.300781 3.335938 53.496094 3.570312 53 4.039062 C 52.496094 4.507812 52.097656 5.347656 51.863281 6.527344 L 51.394531 8.675781 L 50.726562 11.972656 L 49.359375 18.355469 C 49.058594 19.832031 49.089844 20.875 49.421875 21.511719 C 49.757812 22.152344 50.59375 22.453125 51.828125 22.453125 L 55.503906 22.453125 Z M 54.929688 25.226562 "></path><path fill="white" d="M 154.984375 7.15625 C 155.316406 5.632812 155.351562 4.601562 155.152344 4.066406 C 154.949219 3.53125 154.414062 3.261719 153.546875 3.261719 L 152.246094 3.261719 L 150.640625 10.871094 L 152.078125 10.871094 C 152.421875 10.882812 152.765625 10.8125 153.078125 10.667969 C 153.394531 10.523438 153.667969 10.304688 153.882812 10.03125 C 154.316406 9.496094 154.683594 8.523438 154.984375 7.144531 Z M 153.617188 15.730469 C 153.75 15.09375 153.648438 14.625 153.382812 14.320312 C 153.113281 14.019531 152.679688 13.8125 152.078125 13.8125 L 150.007812 13.8125 L 147.601562 25.230469 L 142.660156 25.230469 L 147.871094 0.539062 L 155.417969 0.539062 C 157.488281 0.539062 158.890625 1.011719 159.625 1.984375 C 160.359375 2.957031 160.558594 4.371094 160.132812 6.316406 C 159.832031 7.796875 159.296875 9.003906 158.496094 9.910156 C 157.703125 10.832031 156.660156 11.5 155.492188 11.824219 C 156.625 11.957031 157.460938 12.394531 157.960938 13.132812 C 158.460938 13.871094 158.5625 14.78125 158.328125 15.855469 L 156.324219 25.226562 L 151.613281 25.226562 Z M 153.617188 15.730469 "></path></g></svg>
